icon/lg/mageia.svg

<?xml version="1.0" encoding="UTF-8" standalone="no"?>
<svg viewBox="0 0 512 158" version="1.1" xmlns="http://www.w3.org/2000/svg" xmlns:xlink="http://www.w3.org/1999/xlink" preserveAspectRatio="xMidYMid" height="1em" width="1em">
  <g>
    <path d="M146.191214,74.0283204 C130.315245,74.0283204 118.408269,85.9352972 118.408269,101.811266 L118.408269,128.271214 L126.346253,128.271214 L126.346253,101.811266 C126.346253,89.9042894 134.284238,81.9663049 146.191214,81.9663049 C158.098191,81.9663049 166.036176,89.9042894 166.036176,101.811266 L166.036176,128.271214 L173.97416,128.271214 L173.97416,101.811266 C173.97416,89.9042894 181.912145,81.9663049 193.819121,81.9663049 C205.726098,81.9663049 213.664083,89.9042894 213.664083,101.811266 L213.664083,128.271214 L221.602067,128.271214 L221.602067,101.811266 C221.602067,85.9352972 209.69509,74.0283204 193.819121,74.0283204 C183.456559,74.0283204 174.778357,79.1131287 170.005168,87.0515101 C165.231979,79.1131287 156.553777,74.0283204 146.191214,74.0283204 L146.191214,74.0283204 Z" fill="#262F45"/>
    <path d="M261.953488,74.0283204 C246.077519,74.0283204 234.170543,85.9352972 234.170543,101.811266 C234.170543,117.687235 246.077519,129.594212 261.953488,129.594212 C269.891473,129.594212 276.837209,126.617468 281.79845,121.656227 L281.79845,128.271214 L289.736434,128.271214 L289.736434,101.811266 C289.736434,85.9352972 277.829457,74.0283204 261.953488,74.0283204 L261.953488,74.0283204 Z M261.953488,81.9663049 C273.860465,81.9663049 281.79845,89.9042894 281.79845,101.811266 C281.79845,113.718243 273.860465,121.656227 261.953488,121.656227 C250.046512,121.656227 242.108527,113.718243 242.108527,101.811266 C242.108527,89.9042894 250.046512,81.9663049 261.953488,81.9663049 L261.953488,81.9663049 Z" fill="#262F45"/>
    <path d="M329.426357,74.0283204 C313.550388,74.0283204 301.643411,85.9352972 301.643411,101.811266 C301.643411,117.687235 313.550388,129.594212 329.426357,129.594212 C337.364341,129.594212 344.310078,126.617468 349.271318,121.656227 L349.271318,129.594212 C349.271318,141.501189 341.333333,149.439173 329.426357,149.439173 L329.426357,157.377158 C345.302326,157.377158 357.209302,145.470181 357.209302,129.594212 L357.209302,101.811266 C357.209302,85.9352972 345.302326,74.0283204 329.426357,74.0283204 L329.426357,74.0283204 Z M329.426357,81.9663049 C341.333333,81.9663049 349.271318,89.9042894 349.271318,101.811266 C349.271318,113.718243 341.333333,121.656227 329.426357,121.656227 C317.51938,121.656227 309.581395,113.718243 309.581395,101.811266 C309.581395,89.9042894 317.51938,81.9663049 329.426357,81.9663049 L329.426357,81.9663049 Z" fill="#262F45"/>
    <path d="M396.899225,74.0283204 C381.023256,74.0283204 369.116279,85.9352972 369.116279,101.811266 C369.116279,117.687235 381.023256,129.594212 396.899225,129.594212 L396.899225,121.656227 C386.376394,121.656227 378.968601,115.440256 377.385013,105.780258 L424.434109,105.780258 C424.603174,104.486102 424.682171,103.168529 424.682171,101.811266 C424.682171,85.9352972 412.775194,74.0283204 396.899225,74.0283204 L396.899225,74.0283204 Z M396.899225,81.9663049 C407.422055,81.9663049 414.829848,88.1824083 416.413437,97.8422739 L377.385013,97.8422739 C378.968601,88.1824083 386.376394,81.9663049 396.899225,81.9663049 L396.899225,81.9663049 Z" fill="#262F45"/>
    <path d="M436.589147,75.3513178 L444.527132,75.3513178 L444.527132,128.271214 L436.589147,128.271214 L436.589147,75.3513178 Z" fill="#262F45"/>
    <path d="M440.55814,148.777661 C437.270101,148.777661 434.604651,146.112198 434.604651,142.824153 C434.604651,139.536174 437.270101,136.870711 440.55814,136.870711 C443.846106,136.870711 446.511628,139.536174 446.511628,142.824153 C446.511628,146.112198 443.846106,148.777661 440.55814,148.777661 L440.55814,148.777661 Z" fill="#2397D4"/>
    <path d="M484.217054,74.0283204 C468.341085,74.0283204 456.434109,85.9352972 456.434109,101.811266 C456.434109,117.687235 468.341085,129.594212 484.217054,129.594212 C492.155039,129.594212 499.100775,126.617468 504.062016,121.656227 L504.062016,128.271214 L512,128.271214 L512,101.811266 C512,85.9352972 500.093023,74.0283204 484.217054,74.0283204 L484.217054,74.0283204 Z M484.217054,81.9663049 C496.124031,81.9663049 504.062016,89.9042894 504.062016,101.811266 C504.062016,113.718243 496.124031,121.656227 484.217054,121.656227 C472.310078,121.656227 464.372093,113.718243 464.372093,101.811266 C464.372093,89.9042894 472.310078,81.9663049 484.217054,81.9663049 L484.217054,81.9663049 Z" fill="#262F45"/>
    <path d="M12.5193989,62.6254917 C5.60647276,71.5858092 0,81.6641058 0,93.8733147 C0,120.337457 20.0820622,142.16272 44.9819121,142.16272 C69.8810146,142.16272 89.9638243,120.337569 89.9638243,93.8733147 C89.9638243,81.6616914 84.3484345,71.9036263 77.0446421,62.6255049 C74.3058787,59.7515378 70.3518826,60.1788593 67.4734239,62.0178787 C59.0505873,66.376196 54.5040207,68.1175186 44.9819121,68.0748651 C35.7725139,68.0335876 30.9338824,66.5295909 22.5105827,61.9379101 C19.632124,60.1788593 15.2581557,59.7515245 12.5193989,62.6254917 L12.5193989,62.6254917 Z M18.5219638,70.0593612 C27.252609,74.8866745 35.0389978,77.335847 44.9819121,77.335847 C54.9332341,77.335847 62.7067303,74.8866414 71.4418605,70.0593612 C76.2082894,76.7800889 80.7028424,85.1136827 80.7028424,93.8733147 C80.7028424,115.571326 64.710906,132.901739 44.9819121,132.901739 C25.2519723,132.901739 8.5994832,115.571438 8.5994832,93.8733147 C8.5994832,85.1252457 13.7451427,76.7853478 18.5219638,70.0593612 L18.5219638,70.0593612 Z" fill="#262F45"/>
    <g transform="translate(26.322330, 0.417538)" fill="#2397D4">
      <path d="M8.52708879,54.9888463 L8.5204738,54.9888463 C4.10635907,54.9888463 0.511629561,51.3990847 0.506952765,46.9880128 C0.500337778,42.5622491 4.09567587,38.9671558 8.51379928,38.9624724 C12.9345819,38.9624724 16.5286499,42.552234 16.5339816,46.9633058 C16.5339816,51.3890762 12.9452717,54.9848376 8.52714832,54.9895144 L8.52714832,54.9895144 L8.52708879,54.9888463 Z"/>
      <path d="M30.1697125,49.1129319 C26.0479537,49.1129319 22.6931498,45.7616802 22.690431,41.6435068 C22.683816,37.5144451 26.0384281,34.1577559 30.1629189,34.1543624 C34.2901151,34.1543624 37.6449191,37.5049195 37.6489873,41.6230995 C37.6489873,45.7521546 34.3003221,49.1088504 30.1765127,49.1129319 L30.1698977,49.1129319 L30.1697125,49.1129319 Z"/>
      <path d="M24.0134278,27.756131 C24.0134278,31.4442511 21.0236153,34.4340633 17.3354953,34.4340633 C13.6473753,34.4340633 10.6575629,31.4442511 10.6575629,27.756131 C10.6575629,24.068011 13.6473753,21.0781986 17.3354953,21.0781986 C21.0236153,21.0781986 24.0134278,24.068011 24.0134278,27.756131 L24.0134278,27.756131 Z"/>
      <path d="M34.1638828,16.537206 C34.1638828,19.9302769 31.4132557,22.6809042 28.0201848,22.6809042 C24.6271139,22.6809042 21.8764869,19.9302769 21.8764869,16.537206 C21.8764869,13.1441356 24.6271139,10.393508 28.0201848,10.393508 C31.4132557,10.393508 34.1638828,13.1441356 34.1638828,16.537206 L34.1638828,16.537206 Z"/>
      <path d="M20.2737857,5.58540002 C20.2737857,8.53589632 17.881936,10.927746 14.9314397,10.927746 C11.9809434,10.927746 9.58909367,8.53589632 9.58909367,5.58540002 C9.58909367,2.63490422 11.9809434,0.243053986 14.9314397,0.243053986 C17.881936,0.243053986 20.2737857,2.63490422 20.2737857,5.58540002 L20.2737857,5.58540002 Z"/>
    </g>
  </g>
</svg>

<svg width="512" height="158" xmlns="http://www.w3.org/2000/svg" preserveAspectRatio="xMidYMid"><path d="M146.191 74.028c-15.876 0-27.783 11.907-27.783 27.783v26.46h7.938v-26.46c0-11.907 7.938-19.845 19.845-19.845s19.845 7.938 19.845 19.845v26.46h7.938v-26.46c0-11.907 7.938-19.845 19.845-19.845s19.845 7.938 19.845 19.845v26.46h7.938v-26.46c0-15.876-11.907-27.783-27.783-27.783-10.362 0-19.04 5.085-23.814 13.024-4.773-7.939-13.451-13.024-23.814-13.024ZM261.953 74.028c-15.875 0-27.782 11.907-27.782 27.783 0 15.876 11.907 27.783 27.782 27.783 7.938 0 14.884-2.977 19.845-7.938v6.615h7.938v-26.46c0-15.876-11.907-27.783-27.783-27.783Zm0 7.938c11.907 0 19.845 7.938 19.845 19.845s-7.938 19.845-19.845 19.845c-11.906 0-19.844-7.938-19.844-19.845s7.938-19.845 19.844-19.845ZM329.426 74.028c-15.876 0-27.783 11.907-27.783 27.783 0 15.876 11.907 27.783 27.783 27.783 7.938 0 14.884-2.977 19.845-7.938v7.938c0 11.907-7.938 19.845-19.845 19.845v7.938c15.876 0 27.783-11.907 27.783-27.783v-27.783c0-15.876-11.907-27.783-27.783-27.783Zm0 7.938c11.907 0 19.845 7.938 19.845 19.845s-7.938 19.845-19.845 19.845-19.845-7.938-19.845-19.845 7.938-19.845 19.845-19.845ZM396.9 74.028c-15.877 0-27.784 11.907-27.784 27.783 0 15.876 11.907 27.783 27.783 27.783v-7.938c-10.523 0-17.93-6.216-19.514-15.876h47.05c.168-1.294.247-2.611.247-3.969 0-15.876-11.907-27.783-27.783-27.783Zm0 7.938c10.522 0 17.93 6.216 19.513 15.876h-39.028c1.584-9.66 8.991-15.876 19.514-15.876ZM436.59 75.351h7.937v52.92h-7.938v-52.92Z" fill="#262F45"/><path d="M440.558 148.778a5.953 5.953 0 1 1 0-11.907 5.953 5.953 0 0 1 0 11.907Z" fill="#2397D4"/><path d="M484.217 74.028c-15.876 0-27.783 11.907-27.783 27.783 0 15.876 11.907 27.783 27.783 27.783 7.938 0 14.884-2.977 19.845-7.938v6.615H512v-26.46c0-15.876-11.907-27.783-27.783-27.783Zm0 7.938c11.907 0 19.845 7.938 19.845 19.845s-7.938 19.845-19.845 19.845-19.845-7.938-19.845-19.845 7.938-19.845 19.845-19.845ZM12.52 62.625C5.605 71.585 0 81.665 0 93.873c0 26.464 20.082 48.29 44.982 48.29 24.899 0 44.982-21.825 44.982-48.29 0-12.211-5.616-21.97-12.92-31.247-2.738-2.874-6.692-2.447-9.57-.608-8.423 4.358-12.97 6.1-22.492 6.057-9.21-.041-14.048-1.545-22.471-6.137-2.879-1.76-7.253-2.186-9.992.687Zm6.002 7.434c8.73 4.828 16.517 7.277 26.46 7.277 9.951 0 17.725-2.45 26.46-7.277 4.766 6.721 9.26 15.055 9.26 23.814 0 21.698-15.991 39.029-35.72 39.029-19.73 0-36.383-17.33-36.383-39.029 0-8.748 5.146-17.088 9.923-23.814Z" fill="#262F45"/><g fill="#2397D4"><path d="M34.85 55.406h-.007c-4.414 0-8.009-3.59-8.014-8-.006-4.426 3.589-8.021 8.007-8.026 4.42 0 8.015 3.59 8.02 8 0 4.427-3.588 8.022-8.007 8.027ZM56.492 49.53c-4.122 0-7.477-3.35-7.48-7.469-.006-4.129 3.349-7.486 7.473-7.49 4.127 0 7.482 3.351 7.486 7.47 0 4.129-3.348 7.485-7.472 7.49h-.007ZM50.336 28.174a6.678 6.678 0 1 1-13.356 0 6.678 6.678 0 0 1 13.356 0ZM60.486 16.955a6.144 6.144 0 1 1-12.287 0 6.144 6.144 0 0 1 12.287 0ZM46.596 6.003a5.342 5.342 0 1 1-10.685 0 5.342 5.342 0 0 1 10.685 0Z"/></g></svg>
